ncols 101
nrows 101
xllcorner 493600.0
yllcorner 4513540.0
cellsize 20.0
NODATA_value -9999
60.805 61.903 62.997 64.086 65.165 66.231 67.282 68.314 69.326 70.313 71.274 72.206 73.107 73.975 74.808 75.605 76.364 77.084 77.764 78.403 79.001 79.558 80.073 80.547 80.981 81.375 81.730 82.047 82.328 82.575 82.789 82.972 83.126 83.255 83.360 83.445 83.511 83.563 83.602 83.632 83.657 83.679 83.701 83.727 83.760 83.803 83.859 83.931 84.022 84.134 84.271 84.434 84.627 84.851 85.108 85.401 85.730 86.097 86.504 86.950 87.438 87.966 88.536 89.147 89.799 90.492 91.225 91.996 92.804 93.649 94.528 95.439 96.380 97.350 98.345 99.363 100.402 101.458 102.529 103.611 104.702 105.798 106.896 107.993 109.087 110.172 111.248 112.309 113.355 114.381 115.384 116.364 117.315 118.238 119.129 119.986 120.808 121.592 122.339 123.046 123.713
60.354 61.452 62.547 63.635 64.714 65.780 66.831 67.864 68.875 69.862 70.823 71.755 72.656 73.524 74.358 75.154 75.913 76.633 77.313 77.952 78.550 79.107 79.622 80.097 80.530 80.924 81.279 81.596 81.878 82.124 82.338 82.521 82.676 82.805 82.910 82.994 83.061 83.112 83.152 83.182 83.206 83.228 83.251 83.277 83.310 83.352 83.408 83.480 83.571 83.683 83.820 83.984 84.176 84.400 84.658 84.950 85.279 85.647 86.053 86.500 86.987 87.515 88.085 88.697 89.349 90.042 90.774 91.545 92.354 93.198 94.077 94.988 95.930 96.899 97.894 98.913 99.951 101.007 102.078 103.160 104.251 105.347 106.446 107.543 108.636 109.722 110.797 111.859 112.904 113.930 114.934 115.913 116.865 117.787 118.678 119.535 120.357 121.142 121.888 122.596 123.263
59.948 61.046 62.141 63.229 64.308 65.374 66.425 67.458 68.469 69.456 70.417 71.349 72.250 73.118 73.951 74.748 75.507 76.227 76.907 77.546 78.144 78.701 79.216 79.691 80.124 80.518 80.873 81.190 81.471 81.718 81.932 82.115 82.270 82.398 82.504 82.588 82.655 82.706 82.745 82.776 82.800 82.822 82.844 82.871 82.903 82.946 83.002 83.074 83.165 83.277 83.414 83.578 83.770 83.994 84.252 84.544 84.873 85.241 85.647 86.093 86.581 87.109 87.679 88.290 88.943 89.635 90.368 91.139 91.948 92.792 93.671 94.582 95.523 96.493 97.488 98.506 99.545 100.601 101.672 102.754 103.845 104.941 106.039 107.137 108.230 109.315 110.391 111.452 112.498 113.524 114.528 115.507 116.459 117.381 118.272 119.129 119.951 120.736 121.482 122.190 122.857
59.588 60.686 61.781 62.869 63.948 65.015 66.065 67.098 68.109 69.096 70.057 70.989 71.890 72.758 73.592 74.388 75.147 75.867 76.547 77.186 77.785 78.341 78.857 79.331 79.764 80.158 80.513 80.831 81.112 81.358 81.572 81.755 81.910 82.039 82.144 82.228 82.295 82.346 82.386 82.416 82.441 82.462 82.485 82.511 82.544 82.587 82.642 82.714 82.805 82.918 83.054 83.218 83.411 83.635 83.892 84.184 84.514 84.881 85.287 85.734 86.221 86.750 87.319 87.931 88.583 89.276 90.008 90.779 91.588 92.432 93.311 94.222 95.164 96.133 97.129 98.147 99.185 100.242 101.312 102.395 103.485 104.581 105.680 106.777 107.870 108.956 110.031 111.093 112.138 113.164 114.168 115.147 116.099 117.021 117.912 118.769 119.591 120.376 121.123 121.830 122.497
59.277 60.374 61.469 62.558 63.637 64.703 65.754 66.786 67.797 68.785 69.746 70.678 71.579 72.447 73.280 74.077 74.836 75.556 76.236 76.875 77.473 78.030 78.545 79.019 79.453 79.847 80.202 80.519 80.800 81.047 81.260 81.444 81.598 81.727 81.832 81.917 81.983 82.035 82.074 82.104 82.129 82.151 82.173 82.199 82.232 82.275 82.331 82.403 82.493 82.606 82.743 82.906 83.099 83.323 83.580 83.873 84.202 84.569 84.976 85.422 85.909 86.438 87.008 87.619 88.271 88.964 89.697 90.468 91.276 92.121 93.000 93.911 94.852 95.822 96.817 97.835 98.874 99.930 101.001 102.083 103.174 104.270 105.368 106.465 107.558 108.644 109.719 110.781 111.826 112.852 113.856 114.835 115.787 116.710 117.601 118.458 119.280 120.064 120.811 121.518 122.185
59.014 60.112 61.207 62.295 63.374 64.441 65.491 66.524 67.535 68.522 69.483 70.415 71.316 72.184 73.018 73.814 74.573 75.293 75.973 76.612 77.210 77.767 78.283 78.757 79.190 79.584 79.939 80.257 80.538 80.784 80.998 81.181 81.336 81.465 81.570 81.654 81.721 81.772 81.812 81.842 81.867 81.888 81.911 81.937 81.970 82.013 82.068 82.140 82.231 82.343 82.480 82.644 82.837 83.061 83.318 83.610 83.940 84.307 84.713 85.160 85.647 86.176 86.745 87.357 88.009 88.702 89.434 90.205 91.014 91.858 92.737 93.648 94.590 95.559 96.555 97.573 98.611 99.668 100.738 101.821 102.911 104.007 105.106 106.203 107.296 108.382 109.457 110.519 111.564 112.590 113.594 114.573 115.525 116.447 117.338 118.195 119.017 119.802 120.549 121.256 121.923
58.802 59.899 60.994 62.083 63.162 64.228 65.279 66.311 67.322 68.310 69.271 70.203 71.104 71.972 72.805 73.602 74.361 75.081 75.761 76.400 76.998 77.555 78.070 78.544 78.978 79.372 79.727 80.044 80.325 80.572 80.785 80.969 81.123 81.252 81.357 81.442 81.508 81.560 81.599 81.629 81.654 81.676 81.698 81.724 81.757 81.800 81.856 81.928 82.018 82.131 82.268 82.431 82.624 82.848 83.105 83.398 83.727 84.094 84.501 84.947 85.434 85.963 86.533 87.144 87.796 88.489 89.222 89.993 90.801 91.646 92.524 93.436 94.377 95.347 96.342 97.360 98.399 99.455 100.526 101.608 102.699 103.795 104.893 105.990 107.083 108.169 109.244 110.306 111.351 112.377 113.381 114.360 115.312 116.235 117.126 117.983 118.805 119.589 120.336 121.043 121.710
58.639 59.737 60.832 61.920 62.999 64.065 65.116 66.149 67.160 68.147 69.108 70.040 70.941 71.809 72.642 73.439 74.198 74.918 75.598 76.237 76.835 77.392 77.907 78.382 78.815 79.209 79.564 79.881 80.162 80.409 80.623 80.806 80.961 81.089 81.195 81.279 81.346 81.397 81.436 81.467 81.491 81.513 81.535 81.562 81.594 81.637 81.693 81.765 81.856 81.968 82.105 82.269 82.461 82.685 82.943 83.235 83.564 83.932 84.338 84.784 85.272 85.800 86.370 86.981 87.634 88.326 89.059 89.830 90.639 91.483 92.362 93.273 94.214 95.184 96.179 97.198 98.236 99.292 100.363 101.445 102.536 103.632 104.730 105.828 106.921 108.006 109.082 110.144 111.189 112.215 113.219 114.198 115.150 116.072 116.963 117.820 118.642 119.427 120.173 120.881 121.548
58.526 59.624 60.718 61.807 62.886 63.952 65.003 66.035 67.047 68.034 68.995 69.927 70.828 71.696 72.529 73.326 74.085 74.805 75.485 76.124 76.722 77.279 77.794 78.268 78.702 79.096 79.451 79.768 80.049 80.296 80.510 80.693 80.848 80.976 81.082 81.166 81.232 81.284 81.323 81.354 81.378 81.400 81.422 81.448 81.481 81.524 81.580 81.652 81.743 81.855 81.992 82.155 82.348 82.572 82.830 83.122 83.451 83.818 84.225 84.671 85.159 85.687 86.257 86.868 87.521 88.213 88.946 89.717 90.525 91.370 92.249 93.160 94.101 95.071 96.066 97.084 98.123 99.179 100.250 101.332 102.423 103.519 104.617 105.715 106.808 107.893 108.969 110.030 111.076 112.102 113.106 114.085 115.037 115.959 116.850 117.707 118.529 119.314 120.060 120.767 121.434
58.461 59.559 60.654 61.742 62.821 63.888 64.939 65.971 66.982 67.970 68.930 69.863 70.764 71.632 72.465 73.262 74.021 74.741 75.420 76.060 76.658 77.214 77.730 78.204 78.638 79.032 79.386 79.704 79.985 80.231 80.445 80.628 80.783 80.912 81.017 81.102 81.168 81.220 81.259 81.289 81.314 81.336 81.358 81.384 81.417 81.460 81.516 81.588 81.678 81.791 81.927 82.091 82.284 82.508 82.765 83.058 83.387 83.754 84.160 84.607 85.094 85.623 86.193 86.804 87.456 88.149 88.881 89.652 90.461 91.306 92.184 93.096 94.037 95.007 96.002 97.020 98.059 99.115 100.185 101.268 102.359 103.455 104.553 105.650 106.743 107.829 108.904 109.966 111.011 112.037 113.041 114.020 114.972 115.895 116.785 117.643 118.464 119.249 119.996 120.703 121.370
58.444 59.542 60.637 61.725 62.804 63.871 64.922 65.954 66.965 67.953 68.913 69.846 70.747 71.615 72.448 73.245 74.004 74.723 75.403 76.043 76.641 77.197 77.713 78.187 78.621 79.014 79.369 79.687 79.968 80.214 80.428 80.611 80.766 80.895 81.000 81.085 81.151 81.202 81.242 81.272 81.297 81.319 81.341 81.367 81.400 81.443 81.499 81.571 81.661 81.774 81.910 82.074 82.267 82.491 82.748 83.041 83.370 83.737 84.143 84.590 85.077 85.606 86.176 86.787 87.439 88.132 88.864 89.635 90.444 91.288 92.167 93.078 94.020 94.990 95.985 97.003 98.042 99.098 100.168 101.251 102.341 103.438 104.536 105.633 106.726 107.812 108.887 109.949 110.994 112.020 113.024 114.003 114.955 115.878 116.768 117.626 118.447 119.232 119.979 120.686 121.353
58.473 59.571 60.666 61.754 62.833 63.899 64.950 65.983 66.994 67.981 68.942 69.874 70.775 71.643 72.476 73.273 74.032 74.752 75.432 76.071 76.669 77.226 77.741 78.215 78.649 79.043 79.398 79.715 79.996 80.243 80.457 80.640 80.795 80.923 81.029 81.113 81.180 81.231 81.270 81.301 81.325 81.347 81.369 81.395 81.428 81.471 81.527 81.599 81.690 81.802 81.939 82.102 82.295 82.519 82.777 83.069 83.398 83.765 84.172 84.618 85.106 85.634 86.204 86.815 87.468 88.160 88.893 89.664 90.472 91.317 92.196 93.107 94.048 95.018 96.013 97.031 98.070 99.126 100.197 101.279 102.370 103.466 104.564 105.662 106.755 107.840 108.916 109.977 111.023 112.049 113.053 114.032 114.984 115.906 116.797 117.654 118.476 119.261 120.007 120.715 121.382
58.545 59.642 60.737 61.826 62.905 63.971 65.022 66.054 67.065 68.053 69.014 69.946 70.847 71.715 72.548 73.345 74.104 74.824 75.504 76.143 76.741 77.298 77.813 78.287 78.721 79.115 79.470 79.787 80.068 80.315 80.528 80.712 80.866 80.995 81.100 81.185 81.251 81.303 81.342 81.372 81.397 81.419 81.441 81.467 81.500 81.543 81.599 81.671 81.761 81.874 82.011 82.174 82.367 82.591 82.848 83.141 83.470 83.837 84.244 84.690 85.177 85.706 86.276 86.887 87.539 88.232 88.965 89.736 90.544 91.389 92.267 93.179 94.120 95.090 96.085 97.103 98.142 99.198 100.269 101.351 102.442 103.538 104.636 105.733 106.826 107.912 108.987 110.049 111.094 112.120 113.124 114.103 115.055 115.978 116.869 117.726 118.548 119.332 120.079 120.786 121.453
58.657 59.755 60.849 61.938 63.017 64.083 65.134 66.166 67.178 68.165 69.126 70.058 70.959 71.827 72.660 73.457 74.216 74.936 75.616 76.255 76.853 77.410 77.925 78.399 78.833 79.227 79.582 79.899 80.180 80.427 80.641 80.824 80.979 81.107 81.213 81.297 81.363 81.415 81.454 81.485 81.509 81.531 81.553 81.579 81.612 81.655 81.711 81.783 81.874 81.986 82.123 82.286 82.479 82.703 82.961 83.253 83.582 83.949 84.356 84.802 85.290 85.818 86.388 86.999 87.652 88.344 89.077 89.848 90.656 91.501 92.380 93.291 94.232 95.202 96.197 97.215 98.254 99.310 100.381 101.463 102.554 103.650 104.748 105.846 106.939 108.024 109.100 110.161 111.207 112.233 113.237 114.216 115.168 116.090 116.981 117.838 118.660 119.445 120.191 120.898 121.565
58.806 59.904 60.999 62.087 63.166 64.233 65.284 66.316 67.327 68.315 69.275 70.208 71.109 71.977 72.810 73.607 74.366 75.086 75.765 76.405 77.003 77.559 78.075 78.549 78.983 79.377 79.731 80.049 80.330 80.576 80.790 80.973 81.128 81.257 81.362 81.447 81.513 81.565 81.604 81.634 81.659 81.681 81.703 81.729 81.762 81.805 81.861 81.933 82.023 82.136 82.273 82.436 82.629 82.853 83.110 83.403 83.732 84.099 84.505 84.952 85.439 85.968 86.538 87.149 87.801 88.494 89.226 89.997 90.806 91.651 92.529 93.441 94.382 95.352 96.347 97.365 98.404 99.460 100.530 101.613 102.704 103.800 104.898 105.995 107.088 108.174 109.249 110.311 111.356 112.382 113.386 114.365 115.317 116.240 117.130 117.988 118.809 119.594 120.341 121.048 121.715
58.990 60.088 61.183 62.271 63.350 64.416 65.467 66.500 67.511 68.498 69.459 70.391 71.292 72.160 72.993 73.790 74.549 75.269 75.949 76.588 77.186 77.743 78.258 78.733 79.166 79.560 79.915 80.232 80.513 80.760 80.974 81.157 81.312 81.441 81.546 81.630 81.697 81.748 81.787 81.818 81.842 81.864 81.887 81.913 81.945 81.988 82.044 82.116 82.207 82.319 82.456 82.620 82.812 83.036 83.294 83.586 83.915 84.283 84.689 85.136 85.623 86.151 86.721 87.332 87.985 88.677 89.410 90.181 90.990 91.834 92.713 93.624 94.566 95.535 96.530 97.549 98.587 99.643 100.714 101.796 102.887 103.983 105.081 106.179 107.272 108.358 109.433 110.495 111.540 112.566 113.570 114.549 115.501 116.423 117.314 118.171 118.993 119.778 120.524 121.232 121.899
59.204 60.301 61.396 62.485 63.564 64.630 65.681 66.713 67.724 68.712 69.673 70.605 71.506 72.374 73.207 74.004 74.763 75.483 76.163 76.802 77.400 77.957 78.472 78.946 79.380 79.774 80.129 80.446 80.727 80.974 81.187 81.371 81.525 81.654 81.759 81.844 81.910 81.962 82.001 82.031 82.056 82.078 82.100 82.126 82.159 82.202 82.258 82.330 82.420 82.533 82.670 82.833 83.026 83.250 83.507 83.800 84.129 84.496 84.903 85.349 85.836 86.365 86.935 87.546 88.198 88.891 89.624 90.395 91.203 92.048 92.926 93.838 94.779 95.749 96.744 97.762 98.801 99.857 100.928 102.010 103.101 104.197 105.295 106.392 107.485 108.571 109.646 110.708 111.753 112.779 113.783 114.762 115.714 116.637 117.528 118.385 119.207 119.991 120.738 121.445 122.112
59.443 60.541 61.636 62.724 63.803 64.870 65.920 66.953 67.964 68.951 69.912 70.844 71.745 72.613 73.447 74.243 75.002 75.722 76.402 77.041 77.639 78.196 78.712 79.186 79.619 80.013 80.368 80.686 80.967 81.213 81.427 81.610 81.765 81.894 81.999 82.083 82.150 82.201 82.241 82.271 82.295 82.317 82.340 82.366 82.399 82.442 82.497 82.569 82.660 82.772 82.909 83.073 83.265 83.490 83.747 84.039 84.369 84.736 85.142 85.589 86.076 86.605 87.174 87.786 88.438 89.131 89.863 90.634 91.443 92.287 93.166 94.077 95.019 95.988 96.983 98.002 99.040 100.096 101.167 102.249 103.340 104.436 105.535 106.632 107.725 108.811 109.886 110.948 111.993 113.019 114.023 115.002 115.954 116.876 117.767 118.624 119.446 120.231 120.978 121.685 122.352
59.704 60.802 61.897 62.985 64.064 65.131 66.182 67.214 68.225 69.212 70.173 71.105 72.006 72.875 73.708 74.505 75.263 75.983 76.663 77.302 77.901 78.457 78.973 79.447 79.881 80.274 80.629 80.947 81.228 81.474 81.688 81.871 82.026 82.155 82.260 82.344 82.411 82.462 82.502 82.532 82.557 82.578 82.601 82.627 82.660 82.703 82.758 82.830 82.921 83.034 83.170 83.334 83.527 83.751 84.008 84.301 84.630 84.997 85.403 85.850 86.337 86.866 87.436 88.047 88.699 89.392 90.124 90.895 91.704 92.548 93.427 94.338 95.280 96.249 97.245 98.263 99.301 100.358 101.428 102.511 103.601 104.697 105.796 106.893 107.986 109.072 110.147 111.209 112.254 113.280 114.284 115.263 116.215 117.138 118.028 118.885 119.707 120.492 121.239 121.946 122.613
59.982 61.080 62.175 63.263 64.342 65.409 66.460 67.492 68.503 69.490 70.451 71.383 72.285 73.153 73.986 74.783 75.541 76.261 76.941 77.581 78.179 78.735 79.251 79.725 80.159 80.552 80.907 81.225 81.506 81.752 81.966 82.149 82.304 82.433 82.538 82.623 82.689 82.740 82.780 82.810 82.835 82.857 82.879 82.905 82.938 82.981 83.037 83.108 83.199 83.312 83.448 83.612 83.805 84.029 84.286 84.579 84.908 85.275 85.681 86.128 86.615 87.144 87.714 88.325 88.977 89.670 90.402 91.173 91.982 92.826 93.705 94.616 95.558 96.527 97.523 98.541 99.580 100.636 101.706 102.789 103.879 104.976 106.074 107.171 108.264 109.350 110.425 111.487 112.532 113.558 114.562 115.541 116.493 117.416 118.306 119.163 119.985 120.770 121.517 122.224 122.891
60.272 61.370 62.465 63.554 64.633 65.699 66.750 67.782 68.793 69.781 70.742 71.674 72.575 73.443 74.276 75.073 75.832 76.552 77.232 77.871 78.469 79.026 79.541 80.015 80.449 80.843 81.198 81.515 81.796 82.043 82.256 82.440 82.594 82.723 82.828 82.913 82.979 83.031 83.070 83.100 83.125 83.147 83.169 83.195 83.228 83.271 83.327 83.399 83.489 83.602 83.739 83.902 84.095 84.319 84.576 84.869 85.198 85.565 85.972 86.418 86.905 87.434 88.004 88.615 89.267 89.960 90.692 91.464 92.272 93.117 93.995 94.907 95.848 96.818 97.813 98.831 99.870 100.926 101.997 103.079 104.170 105.266 106.364 107.461 108.554 109.640 110.715 111.777 112.822 113.848 114.852 115.831 116.783 117.706 118.597 119.454 120.275 121.060 121.807 122.514 123.181
60.570 61.668 62.763 63.851 64.930 65.996 67.047 68.080 69.091 70.078 71.039 71.971 72.872 73.740 74.574 75.370 76.129 76.849 77.529 78.168 78.766 79.323 79.838 80.313 80.746 81.140 81.495 81.812 82.094 82.340 82.554 82.737 82.892 83.021 83.126 83.210 83.277 83.328 83.367 83.398 83.422 83.444 83.467 83.493 83.526 83.568 83.624 83.696 83.787 83.899 84.036 84.200 84.392 84.616 84.874 85.166 85.495 85.863 86.269 86.716 87.203 87.731 88.301 88.913 89.565 90.258 90.990 91.761 92.570 93.414 94.293 95.204 96.146 97.115 98.110 99.129 100.167 101.223 102.294 103.376 104.467 105.563 106.662 107.759 108.852 109.938 111.013 112.075 113.120 114.146 115.150 116.129 117.081 118.003 118.894 119.751 120.573 121.358 122.104 122.812 123.479
60.870 61.968 63.062 64.151 65.230 66.296 67.347 68.379 69.391 70.378 71.339 72.271 73.172 74.040 74.873 75.670 76.429 77.149 77.829 78.468 79.066 79.623 80.138 80.612 81.046 81.440 81.795 82.112 82.393 82.640 82.854 83.037 83.192 83.320 83.426 83.510 83.576 83.628 83.667 83.698 83.722 83.744 83.766 83.792 83.825 83.868 83.924 83.996 84.087 84.199 84.336 84.499 84.692 84.916 85.174 85.466 85.795 86.162 86.569 87.015 87.503 88.031 88.601 89.212 89.865 90.557 91.290 92.061 92.869 93.714 94.593 95.504 96.445 97.415 98.410 99.428 100.467 101.523 102.594 103.676 104.767 105.863 106.961 108.059 109.152 110.237 111.313 112.374 113.420 114.446 115.450 116.429 117.381 118.303 119.194 120.051 120.873 121.658 122.404 123.111 123.778
61.167 62.265 63.360 64.448 65.527 66.593 67.644 68.677 69.688 70.675 71.636 72.568 73.469 74.337 75.170 75.967 76.726 77.446 78.126 78.765 79.363 79.920 80.435 80.910 81.343 81.737 82.092 82.409 82.690 82.937 83.151 83.334 83.489 83.617 83.723 83.807 83.874 83.925 83.964 83.995 84.019 84.041 84.063 84.090 84.122 84.165 84.221 84.293 84.384 84.496 84.633 84.797 84.989 85.213 85.471 85.763 86.092 86.460 86.866 87.312 87.800 88.328 88.898 89.509 90.162 90.854 91.587 92.358 93.167 94.011 94.890 95.801 96.742 97.712 98.707 99.725 100.764 101.820 102.891 103.973 105.064 106.160 107.258 108.356 109.449 110.534 111.610 112.671 113.717 114.743 115.747 116.726 117.678 118.600 119.491 120.348 121.170 121.955 122.701 123.409 124.076
61.456 62.554 63.649 64.737 65.816 66.883 67.934 68.966 69.977 70.965 71.925 72.857 73.759 74.627 75.460 76.257 77.016 77.735 78.415 79.055 79.653 80.209 80.725 81.199 81.633 82.026 82.381 82.699 82.980 83.226 83.440 83.623 83.778 83.907 84.012 84.097 84.163 84.214 84.254 84.284 84.309 84.331 84.353 84.379 84.412 84.455 84.511 84.582 84.673 84.786 84.922 85.086 85.279 85.503 85.760 86.053 86.382 86.749 87.155 87.602 88.089 88.618 89.188 89.799 90.451 91.144 91.876 92.647 93.456 94.300 95.179 96.090 97.032 98.001 98.997 100.015 101.054 102.110 103.180 104.263 105.353 106.450 107.548 108.645 109.738 110.824 111.899 112.961 114.006 115.032 116.036 117.015 117.967 118.890 119.780 120.638 121.459 122.244 122.991 123.698 124.365
61.733 62.831 63.926 65.014 66.093 67.160 68.210 69.243 70.254 71.241 72.202 73.134 74.035 74.903 75.737 76.533 77.292 78.012 78.692 79.331 79.930 80.486 81.002 81.476 81.909 82.303 82.658 82.976 83.257 83.503 83.717 83.900 84.055 84.184 84.289 84.373 84.440 84.491 84.531 84.561 84.586 84.607 84.630 84.656 84.689 84.732 84.787 84.859 84.950 85.063 85.199 85.363 85.556 85.780 86.037 86.329 86.659 87.026 87.432 87.879 88.366 88.895 89.464 90.076 90.728 91.421 92.153 92.924 93.733 94.577 95.456 96.367 97.309 98.278 99.274 100.292 101.330 102.387 103.457 104.540 105.630 106.726 107.825 108.922 110.015 111.101 112.176 113.238 114.283 115.309 116.313 117.292 118.244 119.166 120.057 120.914 121.736 122.521 123.268 123.975 124.642
61.993 63.091 64.185 65.274 66.353 67.419 68.470 69.502 70.514 71.501 72.462 73.394 74.295 75.163 75.996 76.793 77.552 78.272 78.952 79.591 80.189 80.746 81.261 81.735 82.169 82.563 82.918 83.235 83.516 83.763 83.977 84.160 84.315 84.443 84.549 84.633 84.699 84.751 84.790 84.821 84.845 84.867 84.889 84.915 84.948 84.991 85.047 85.119 85.210 85.322 85.459 85.622 85.815 86.039 86.297 86.589 86.918 87.285 87.692 88.138 88.626 89.154 89.724 90.335 90.988 91.680 92.413 93.184 93.992 94.837 95.716 96.627 97.568 98.538 99.533 100.551 101.590 102.646 103.717 104.799 105.890 106.986 108.084 109.182 110.275 111.360 112.436 113.497 114.543 115.569 116.572 117.552 118.504 119.426 120.317 121.174 121.996 122.781 123.527 124.234 124.901
62.230 63.328 64.423 65.511 66.590 67.657 68.708 69.740 70.751 71.739 72.699 73.632 74.533 75.401 76.234 77.031 77.790 78.509 79.189 79.829 80.427 80.983 81.499 81.973 82.407 82.801 83.155 83.473 83.754 84.000 84.214 84.397 84.552 84.681 84.786 84.871 84.937 84.989 85.028 85.058 85.083 85.105 85.127 85.153 85.186 85.229 85.285 85.357 85.447 85.560 85.696 85.860 86.053 86.277 86.534 86.827 87.156 87.523 87.929 88.376 88.863 89.392 89.962 90.573 91.225 91.918 92.650 93.421 94.230 95.075 95.953 96.865 97.806 98.776 99.771 100.789 101.828 102.884 103.954 105.037 106.128 107.224 108.322 109.419 110.512 111.598 112.673 113.735 114.780 115.806 116.810 117.789 118.741 119.664 120.554 121.412 122.233 123.018 123.765 124.472 125.139
62.442 63.540 64.634 65.723 66.802 67.868 68.919 69.951 70.963 71.950 72.911 73.843 74.744 75.612 76.445 77.242 78.001 78.721 79.401 80.040 80.638 81.195 81.710 82.184 82.618 83.012 83.367 83.684 83.965 84.212 84.426 84.609 84.764 84.892 84.998 85.082 85.148 85.200 85.239 85.270 85.294 85.316 85.338 85.364 85.397 85.440 85.496 85.568 85.659 85.771 85.908 86.071 86.264 86.488 86.746 87.038 87.367 87.734 88.141 88.587 89.075 89.603 90.173 90.784 91.437 92.129 92.862 93.633 94.441 95.286 96.165 97.076 98.017 98.987 99.982 101.000 102.039 103.095 104.166 105.248 106.339 107.435 108.533 109.631 110.724 111.809 112.885 113.946 114.992 116.018 117.022 118.001 118.953 119.875 120.766 121.623 122.445 123.230 123.976 124.683 125.350
62.623 63.721 64.815 65.904 66.983 68.049 69.100 70.132 71.144 72.131 73.092 74.024 74.925 75.793 76.626 77.423 78.182 78.902 79.582 80.221 80.819 81.376 81.891 82.365 82.799 83.193 83.548 83.865 84.146 84.393 84.607 84.790 84.945 85.073 85.179 85.263 85.329 85.381 85.420 85.451 85.475 85.497 85.519 85.545 85.578 85.621 85.677 85.749 85.840 85.952 86.089 86.252 86.445 86.669 86.927 87.219 87.548 87.915 88.322 88.768 89.256 89.784 90.354 90.965 91.618 92.310 93.043 93.814 94.622 95.467 96.346 97.257 98.198 99.168 100.163 101.181 102.220 103.276 104.347 105.429 106.520 107.616 108.714 109.812 110.905 111.990 113.066 114.127 115.173 116.199 117.202 118.182 119.134 120.056 120.947 121.804 122.626 123.411 124.157 124.864 125.531
62.770 63.867 64.962 66.051 67.130 68.196 69.247 70.279 71.290 72.278 73.239 74.171 75.072 75.940 76.773 77.570 78.329 79.049 79.729 80.368 80.966 81.523 82.038 82.512 82.946 83.340 83.695 84.012 84.293 84.540 84.753 84.937 85.091 85.220 85.325 85.410 85.476 85.528 85.567 85.597 85.622 85.644 85.666 85.692 85.725 85.768 85.824 85.896 85.986 86.099 86.236 86.399 86.592 86.816 87.073 87.366 87.695 88.062 88.469 88.915 89.402 89.931 90.501 91.112 91.764 92.457 93.189 93.961 94.769 95.614 96.492 97.404 98.345 99.315 100.310 101.328 102.367 103.423 104.494 105.576 106.667 107.763 108.861 109.958 111.051 112.137 113.212 114.274 115.319 116.345 117.349 118.328 119.280 120.203 121.094 121.951 122.772 123.557 124.304 125.011 125.678
62.879 63.977 65.071 66.160 67.239 68.305 69.356 70.388 71.400 72.387 73.348 74.280 75.181 76.049 76.882 77.679 78.438 79.158 79.838 80.477 81.075 81.632 82.147 82.621 83.055 83.449 83.804 84.121 84.402 84.649 84.863 85.046 85.200 85.329 85.434 85.519 85.585 85.637 85.676 85.706 85.731 85.753 85.775 85.801 85.834 85.877 85.933 86.005 86.096 86.208 86.345 86.508 86.701 86.925 87.182 87.475 87.804 88.171 88.578 89.024 89.512 90.040 90.610 91.221 91.873 92.566 93.299 94.070 94.878 95.723 96.602 97.513 98.454 99.424 100.419 101.437 102.476 103.532 104.603 105.685 106.776 107.872 108.970 110.067 111.160 112.246 113.321 114.383 115.429 116.455 117.458 118.438 119.389 120.312 121.203 122.060 122.882 123.666 124.413 125.120 125.787
62.947 64.045 65.140 66.228 67.307 68.373 69.424 70.457 71.468 72.455 73.416 74.348 75.249 76.117 76.951 77.747 78.506 79.226 79.906 80.545 81.143 81.700 82.215 82.690 83.123 83.517 83.872 84.189 84.470 84.717 84.931 85.114 85.269 85.398 85.503 85.587 85.654 85.705 85.744 85.775 85.799 85.821 85.844 85.870 85.903 85.945 86.001 86.073 86.164 86.276 86.413 86.577 86.769 86.993 87.251 87.543 87.872 88.240 88.646 89.093 89.580 90.108 90.678 91.290 91.942 92.635 93.367 94.138 94.947 95.791 96.670 97.581 98.523 99.492 100.487 101.506 102.544 103.600 104.671 105.753 106.844 107.940 109.039 110.136 111.229 112.315 113.390 114.452 115.497 116.523 117.527 118.506 119.458 120.380 121.271 122.128 122.950 123.735 124.481 125.189 125.856
62.972 64.070 65.165 66.253 67.332 68.398 69.449 70.482 71.493 72.480 73.441 74.373 75.274 76.142 76.975 77.772 78.531 79.251 79.931 80.570 81.168 81.725 82.240 82.715 83.148 83.542 83.897 84.214 84.495 84.742 84.956 85.139 85.294 85.422 85.528 85.612 85.679 85.730 85.769 85.800 85.824 85.846 85.869 85.895 85.927 85.970 86.026 86.098 86.189 86.301 86.438 86.602 86.794 87.018 87.276 87.568 87.897 88.265 88.671 89.118 89.605 90.133 90.703 91.314 91.967 92.659 93.392 94.163 94.972 95.816 96.695 97.606 98.548 99.517 100.512 101.531 102.569 103.625 104.696 105.778 106.869 107.965 109.063 110.161 111.254 112.340 113.415 114.477 115.522 116.548 117.552 118.531 119.483 120.405 121.296 122.153 122.975 123.760 124.506 125.214 125.881
62.951 64.049 65.144 66.232 67.311 68.378 69.428 70.461 71.472 72.459 73.420 74.352 75.253 76.121 76.955 77.751 78.510 79.230 79.910 80.549 81.148 81.704 82.220 82.694 83.127 83.521 83.876 84.194 84.475 84.721 84.935 85.118 85.273 85.402 85.507 85.591 85.658 85.709 85.749 85.779 85.804 85.825 85.848 85.874 85.907 85.950 86.005 86.077 86.168 86.281 86.417 86.581 86.774 86.998 87.255 87.547 87.877 88.244 88.650 89.097 89.584 90.113 90.682 91.294 91.946 92.639 93.371 94.142 94.951 95.795 96.674 97.585 98.527 99.496 100.492 101.510 102.548 103.605 104.675 105.758 106.848 107.944 109.043 110.140 111.233 112.319 113.394 114.456 115.501 116.527 117.531 118.510 119.462 120.384 121.275 122.132 122.954 123.739 124.486 125.193 125.860
62.883 63.981 65.076 66.164 67.243 68.309 69.360 70.393 71.404 72.391 73.352 74.284 75.185 76.053 76.886 77.683 78.442 79.162 79.842 80.481 81.079 81.636 82.151 82.626 83.059 83.453 83.808 84.125 84.406 84.653 84.867 85.050 85.205 85.334 85.439 85.523 85.590 85.641 85.680 85.711 85.735 85.757 85.780 85.806 85.838 85.881 85.937 86.009 86.100 86.212 86.349 86.513 86.705 86.929 87.187 87.479 87.808 88.176 88.582 89.029 89.516 90.044 90.614 91.225 91.878 92.570 93.303 94.074 94.883 95.727 96.606 97.517 98.459 99.428 100.423 101.442 102.480 103.536 104.607 105.689 106.780 107.876 108.974 110.072 111.165 112.251 113.326 114.388 115.433 116.459 117.463 118.442 119.394 120.316 121.207 122.064 122.886 123.671 124.417 125.125 125.792
62.766 63.864 64.959 66.047 67.126 68.192 69.243 70.276 71.287 72.274 73.235 74.167 75.068 75.936 76.769 77.566 78.325 79.045 79.725 80.364 80.962 81.519 82.034 82.509 82.942 83.336 83.691 84.008 84.289 84.536 84.750 84.933 85.088 85.216 85.322 85.406 85.473 85.524 85.563 85.594 85.618 85.640 85.663 85.689 85.721 85.764 85.820 85.892 85.983 86.095 86.232 86.396 86.588 86.812 87.070 87.362 87.691 88.059 88.465 88.912 89.399 89.927 90.497 91.108 91.761 92.453 93.186 93.957 94.766 95.610 96.489 97.400 98.342 99.311 100.306 101.325 102.363 103.419 104.490 105.572 106.663 107.759 108.857 109.955 111.048 112.134 113.209 114.271 115.316 116.342 117.346 118.325 119.277 120.199 121.090 121.947 122.769 123.554 124.300 125.008 125.675
62.599 63.697 64.792 65.880 66.959 68.026 69.077 70.109 71.120 72.108 73.068 74.000 74.902 75.770 76.603 77.400 78.159 78.878 79.558 80.198 80.796 81.352 81.868 82.342 82.776 83.169 83.524 83.842 84.123 84.369 84.583 84.766 84.921 85.050 85.155 85.240 85.306 85.357 85.397 85.427 85.452 85.474 85.496 85.522 85.555 85.598 85.654 85.725 85.816 85.929 86.065 86.229 86.422 86.646 86.903 87.196 87.525 87.892 88.298 88.745 89.232 89.761 90.331 90.942 91.594 92.287 93.019 93.790 94.599 95.443 96.322 97.233 98.175 99.144 100.140 101.158 102.197 103.253 104.323 105.406 106.496 107.593 108.691 109.788 110.881 111.967 113.042 114.104 115.149 116.175 117.179 118.158 119.110 120.033 120.923 121.781 122.602 123.387 124.134 124.841 125.508
62.383 63.481 64.575 65.664 66.743 67.809 68.860 69.892 70.904 71.891 72.852 73.784 74.685 75.553 76.386 77.183 77.942 78.662 79.342 79.981 80.579 81.136 81.651 82.125 82.559 82.953 83.308 83.625 83.906 84.153 84.367 84.550 84.705 84.833 84.939 85.023 85.089 85.141 85.180 85.211 85.235 85.257 85.279 85.305 85.338 85.381 85.437 85.509 85.600 85.712 85.849 86.012 86.205 86.429 86.687 86.979 87.308 87.675 88.082 88.528 89.016 89.544 90.114 90.725 91.377 92.070 92.803 93.574 94.382 95.227 96.106 97.017 97.958 98.928 99.923 100.941 101.980 103.036 104.107 105.189 106.280 107.376 108.474 109.572 110.665 111.750 112.826 113.887 114.933 115.959 116.962 117.942 118.894 119.816 120.707 121.564 122.386 123.171 123.917 124.624 125.291
62.116 63.214 64.309 65.397 66.476 67.543 68.594 69.626 70.637 71.625 72.585 73.517 74.419 75.287 76.120 76.917 77.676 78.395 79.075 79.715 80.313 80.869 81.385 81.859 82.293 82.686 83.041 83.359 83.640 83.886 84.100 84.283 84.438 84.567 84.672 84.757 84.823 84.874 84.914 84.944 84.969 84.991 85.013 85.039 85.072 85.115 85.171 85.242 85.333 85.446 85.582 85.746 85.939 86.163 86.420 86.713 87.042 87.409 87.815 88.262 88.749 89.278 89.848 90.459 91.111 91.804 92.536 93.307 94.116 94.960 95.839 96.750 97.692 98.662 99.657 100.675 101.714 102.770 103.840 104.923 106.013 107.110 108.208 109.305 110.398 111.484 112.559 113.621 114.666 115.692 116.696 117.675 118.627 119.550 120.440 121.298 122.119 122.904 123.651 124.358 125.025
61.801 62.899 63.994 65.082 66.161 67.227 68.278 69.311 70.322 71.309 72.270 73.202 74.103 74.971 75.804 76.601 77.360 78.080 78.760 79.399 79.997 80.554 81.069 81.543 81.977 82.371 82.726 83.043 83.324 83.571 83.785 83.968 84.123 84.251 84.357 84.441 84.508 84.559 84.598 84.629 84.653 84.675 84.697 84.723 84.756 84.799 84.855 84.927 85.018 85.130 85.267 85.431 85.623 85.847 86.105 86.397 86.726 87.094 87.500 87.946 88.434 88.962 89.532 90.143 90.796 91.488 92.221 92.992 93.800 94.645 95.524 96.435 97.376 98.346 99.341 100.359 101.398 102.454 103.525 104.607 105.698 106.794 107.892 108.990 110.083 111.168 112.244 113.305 114.351 115.377 116.381 117.360 118.312 119.234 120.125 120.982 121.804 122.589 123.335 124.043 124.710
61.437 62.535 63.630 64.718 65.797 66.864 67.915 68.947 69.958 70.946 71.906 72.839 73.740 74.608 75.441 76.238 76.997 77.717 78.396 79.036 79.634 80.190 80.706 81.180 81.614 82.008 82.362 82.680 82.961 83.207 83.421 83.604 83.759 83.888 83.993 84.078 84.144 84.196 84.235 84.265 84.290 84.312 84.334 84.360 84.393 84.436 84.492 84.564 84.654 84.767 84.903 85.067 85.260 85.484 85.741 86.034 86.363 86.730 87.136 87.583 88.070 88.599 89.169 89.780 90.432 91.125 91.857 92.628 93.437 94.282 95.160 96.072 97.013 97.983 98.978 99.996 101.035 102.091 103.161 104.244 105.335 106.431 107.529 108.626 109.719 110.805 111.880 112.942 113.987 115.013 116.017 116.996 117.948 118.871 119.761 120.619 121.440 122.225 122.972 123.679 124.346
61.028 62.126 63.220 64.309 65.388 66.454 67.505 68.537 69.549 70.536 71.497 72.429 73.330 74.198 75.031 75.828 76.587 77.307 77.987 78.626 79.224 79.781 80.296 80.770 81.204 81.598 81.953 82.270 82.551 82.798 83.012 83.195 83.349 83.478 83.583 83.668 83.734 83.786 83.825 83.855 83.880 83.902 83.924 83.950 83.983 84.026 84.082 84.154 84.245 84.357 84.494 84.657 84.850 85.074 85.331 85.624 85.953 86.320 86.727 87.173 87.661 88.189 88.759 89.370 90.022 90.715 91.448 92.219 93.027 93.872 94.751 95.662 96.603 97.573 98.568 99.586 100.625 101.681 102.752 103.834 104.925 106.021 107.119 108.216 109.309 110.395 111.470 112.532 113.578 114.603 115.607 116.587 117.538 118.461 119.352 120.209 121.031 121.815 122.562 123.269 123.936
60.574 61.671 62.766 63.855 64.934 66.000 67.051 68.083 69.094 70.082 71.043 71.975 72.876 73.744 74.577 75.374 76.133 76.853 77.533 78.172 78.770 79.327 79.842 80.316 80.750 81.144 81.499 81.816 82.097 82.344 82.557 82.741 82.895 83.024 83.129 83.214 83.280 83.332 83.371 83.401 83.426 83.448 83.470 83.496 83.529 83.572 83.628 83.700 83.790 83.903 84.040 84.203 84.396 84.620 84.877 85.170 85.499 85.866 86.273 86.719 87.206 87.735 88.305 88.916 89.568 90.261 90.994 91.765 92.573 93.418 94.297 95.208 96.149 97.119 98.114 99.132 100.171 101.227 102.298 103.380 104.471 105.567 106.665 107.762 108.855 109.941 111.016 112.078 113.123 114.149 115.153 116.132 117.084 118.007 118.898 119.755 120.577 121.361 122.108 122.815 123.482
60.078 61.176 62.271 63.359 64.438 65.504 66.555 67.588 68.599 69.586 70.547 71.479 72.380 73.248 74.081 74.878 75.637 76.357 77.037 77.676 78.274 78.831 79.346 79.820 80.254 80.648 81.003 81.320 81.601 81.848 82.062 82.245 82.400 82.528 82.634 82.718 82.785 82.836 82.875 82.906 82.930 82.952 82.974 83.000 83.033 83.076 83.132 83.204 83.295 83.407 83.544 83.707 83.900 84.124 84.382 84.674 85.003 85.370 85.777 86.223 86.711 87.239 87.809 88.420 89.073 89.765 90.498 91.269 92.077 92.922 93.801 94.712 95.653 96.623 97.618 98.636 99.675 100.731 101.802 102.884 103.975 105.071 106.169 107.267 108.360 109.445 110.521 111.582 112.628 113.654 114.658 115.637 116.589 117.511 118.402 119.259 120.081 120.866 121.612 122.320 122.987
59.543 60.641 61.736 62.824 63.903 64.970 66.021 67.053 68.064 69.052 70.012 70.945 71.846 72.714 73.547 74.344 75.103 75.822 76.502 77.142 77.740 78.296 78.812 79.286 79.720 80.113 80.468 80.786 81.067 81.313 81.527 81.710 81.865 81.994 82.099 82.184 82.250 82.301 82.341 82.371 82.396 82.418 82.440 82.466 82.499 82.542 82.598 82.670 82.760 82.873 83.009 83.173 83.366 83.590 83.847 84.140 84.469 84.836 85.242 85.689 86.176 86.705 87.275 87.886 88.538 89.231 89.963 90.734 91.543 92.387 93.266 94.177 95.119 96.089 97.084 98.102 99.141 100.197 101.267 102.350 103.440 104.537 105.635 106.732 107.825 108.911 109.986 111.048 112.093 113.119 114.123 115.102 116.054 116.977 117.867 118.725 119.546 120.331 121.078 121.785 122.452
58.973 60.071 61.166 62.255 63.333 64.400 65.451 66.483 67.494 68.482 69.443 70.375 71.276 72.144 72.977 73.774 74.533 75.253 75.932 76.572 77.170 77.727 78.242 78.716 79.150 79.544 79.899 80.216 80.497 80.744 80.957 81.141 81.295 81.424 81.529 81.614 81.680 81.732 81.771 81.801 81.826 81.848 81.870 81.896 81.929 81.972 82.028 82.100 82.190 82.303 82.440 82.603 82.796 83.020 83.277 83.570 83.899 84.266 84.673 85.119 85.606 86.135 86.705 87.316 87.968 88.661 89.393 90.165 90.973 91.818 92.696 93.608 94.549 95.519 96.514 97.532 98.571 99.627 100.698 101.780 102.871 103.967 105.065 106.162 107.255 108.341 109.416 110.478 111.523 112.549 113.553 114.532 115.484 116.407 117.298 118.155 118.976 119.761 120.508 121.215 121.882
58.372 59.470 60.565 61.653 62.732 63.798 64.849 65.882 66.893 67.880 68.841 69.773 70.674 71.542 72.375 73.172 73.931 74.651 75.331 75.970 76.568 77.125 77.640 78.115 78.548 78.942 79.297 79.614 79.895 80.142 80.356 80.539 80.694 80.822 80.928 81.012 81.079 81.130 81.169 81.200 81.224 81.246 81.268 81.295 81.327 81.370 81.426 81.498 81.589 81.701 81.838 82.002 82.194 82.418 82.676 82.968 83.297 83.665 84.071 84.517 85.005 85.533 86.103 86.714 87.367 88.059 88.792 89.563 90.372 91.216 92.095 93.006 93.947 94.917 95.912 96.930 97.969 99.025 100.096 101.178 102.269 103.365 104.463 105.561 106.654 107.739 108.815 109.877 110.922 111.948 112.952 113.931 114.883 115.805 116.696 117.553 118.375 119.160 119.906 120.614 121.281
57.743 58.841 59.935 61.024 62.103 63.169 64.220 65.252 66.263 67.251 68.212 69.144 70.045 70.913 71.746 72.543 73.302 74.022 74.702 75.341 75.939 76.496 77.011 77.485 77.919 78.313 78.668 78.985 79.266 79.513 79.726 79.910 80.064 80.193 80.298 80.383 80.449 80.501 80.540 80.570 80.595 80.617 80.639 80.665 80.698 80.741 80.797 80.869 80.960 81.072 81.209 81.372 81.565 81.789 82.046 82.339 82.668 83.035 83.442 83.888 84.375 84.904 85.474 86.085 86.737 87.430 88.163 88.934 89.742 90.587 91.466 92.377 93.318 94.288 95.283 96.301 97.340 98.396 99.467 100.549 101.640 102.736 103.834 104.931 106.024 107.110 108.185 109.247 110.293 111.318 112.322 113.301 114.253 115.176 116.067 116.924 117.746 118.530 119.277 119.984 120.651
57.090 58.188 59.283 60.371 61.450 62.516 63.567 64.600 65.611 66.598 67.559 68.491 69.392 70.260 71.093 71.890 72.649 73.369 74.049 74.688 75.286 75.843 76.358 76.833 77.266 77.660 78.015 78.332 78.613 78.860 79.074 79.257 79.412 79.540 79.646 79.730 79.797 79.848 79.887 79.918 79.942 79.964 79.986 80.013 80.045 80.088 80.144 80.216 80.307 80.419 80.556 80.720 80.912 81.136 81.394 81.686 82.015 82.383 82.789 83.235 83.723 84.251 84.821 85.432 86.085 86.777 87.510 88.281 89.090 89.934 90.813 91.724 92.666 93.635 94.630 95.649 96.687 97.743 98.814 99.896 100.987 102.083 103.181 104.279 105.372 106.457 107.533 108.595 109.640 110.666 111.670 112.649 113.601 114.523 115.414 116.271 117.093 117.878 118.624 119.332 119.999
56.418 57.516 58.611 59.699 60.778 61.845 62.896 63.928 64.939 65.927 66.887 67.819 68.721 69.589 70.422 71.219 71.978 72.697 73.377 74.017 74.615 75.171 75.687 76.161 76.595 76.988 77.343 77.661 77.942 78.188 78.402 78.585 78.740 78.869 78.974 79.059 79.125 79.176 79.216 79.246 79.271 79.293 79.315 79.341 79.374 79.417 79.473 79.544 79.635 79.748 79.884 80.048 80.241 80.465 80.722 81.015 81.344 81.711 82.117 82.564 83.051 83.580 84.150 84.761 85.413 86.106 86.838 87.609 88.418 89.262 90.141 91.052 91.994 92.963 93.959 94.977 96.016 97.072 98.142 99.225 100.315 101.412 102.510 103.607 104.700 105.786 106.861 107.923 108.968 109.994 110.998 111.977 112.929 113.852 114.742 115.600 116.421 117.206 117.953 118.660 119.327
55.733 56.830 57.925 59.014 60.093 61.159 62.210 63.242 64.253 65.241 66.202 67.134 68.035 68.903 69.736 70.533 71.292 72.012 72.692 73.331 73.929 74.486 75.001 75.475 75.909 76.303 76.658 76.975 77.256 77.503 77.716 77.900 78.054 78.183 78.288 78.373 78.439 78.491 78.530 78.560 78.585 78.607 78.629 78.655 78.688 78.731 78.787 78.859 78.949 79.062 79.199 79.362 79.555 79.779 80.036 80.329 80.658 81.025 81.432 81.878 82.365 82.894 83.464 84.075 84.727 85.420 86.153 86.924 87.732 88.577 89.456 90.367 91.308 92.278 93.273 94.291 95.330 96.386 97.457 98.539 99.630 100.726 101.824 102.921 104.014 105.100 106.175 107.237 108.282 109.308 110.312 111.291 112.243 113.166 114.057 114.914 115.736 116.520 117.267 117.974 118.641
55.037 56.135 57.230 58.319 59.398 60.464 61.515 62.547 63.558 64.546 65.507 66.439 67.340 68.208 69.041 69.838 70.597 71.317 71.997 72.636 73.234 73.791 74.306 74.780 75.214 75.608 75.963 76.280 76.561 76.808 77.021 77.205 77.359 77.488 77.593 77.678 77.744 77.796 77.835 77.865 77.890 77.912 77.934 77.960 77.993 78.036 78.092 78.164 78.254 78.367 78.504 78.667 78.860 79.084 79.341 79.634 79.963 80.330 80.737 81.183 81.670 82.199 82.769 83.380 84.032 84.725 85.457 86.229 87.037 87.882 88.760 89.672 90.613 91.583 92.578 93.596 94.635 95.691 96.762 97.844 98.935 100.031 101.129 102.226 103.319 104.405 105.480 106.542 107.587 108.613 109.617 110.596 111.548 112.471 113.362 114.219 115.040 115.825 116.572 117.279 117.946
54.338 55.436 56.531 57.619 58.698 59.764 60.815 61.848 62.859 63.846 64.807 65.739 66.640 67.508 68.342 69.138 69.897 70.617 71.297 71.936 72.534 73.091 73.606 74.081 74.514 74.908 75.263 75.580 75.862 76.108 76.322 76.505 76.660 76.789 76.894 76.978 77.045 77.096 77.136 77.166 77.190 77.212 77.235 77.261 77.294 77.336 77.392 77.464 77.555 77.667 77.804 77.968 78.160 78.384 78.642 78.934 79.264 79.631 80.037 80.484 80.971 81.499 82.069 82.681 83.333 84.026 84.758 85.529 86.338 87.182 88.061 88.972 89.914 90.883 91.878 92.897 93.935 94.991 96.062 97.144 98.235 99.331 100.430 101.527 102.620 103.706 104.781 105.843 106.888 107.914 108.918 109.897 110.849 111.771 112.662 113.519 114.341 115.126 115.873 116.580 117.247
53.639 54.737 55.832 56.920 57.999 59.066 60.117 61.149 62.160 63.147 64.108 65.040 65.941 66.810 67.643 68.440 69.198 69.918 70.598 71.237 71.836 72.392 72.908 73.382 73.816 74.209 74.564 74.882 75.163 75.409 75.623 75.806 75.961 76.090 76.195 76.279 76.346 76.397 76.437 76.467 76.492 76.513 76.536 76.562 76.595 76.638 76.694 76.765 76.856 76.969 77.105 77.269 77.462 77.686 77.943 78.236 78.565 78.932 79.338 79.785 80.272 80.801 81.371 81.982 82.634 83.327 84.059 84.830 85.639 86.483 87.362 88.273 89.215 90.184 91.180 92.198 93.236 94.293 95.363 96.446 97.536 98.632 99.731 100.828 101.921 103.007 104.082 105.144 106.189 107.215 108.219 109.198 110.150 111.073 111.963 112.820 113.642 114.427 115.174 115.881 116.548
52.946 54.044 55.139 56.227 57.306 58.372 59.423 60.456 61.467 62.454 63.415 64.347 65.248 66.116 66.950 67.746 68.505 69.225 69.905 70.544 71.142 71.699 72.214 72.689 73.122 73.516 73.871 74.188 74.470 74.716 74.930 75.113 75.268 75.397 75.502 75.586 75.653 75.704 75.743 75.774 75.798 75.820 75.843 75.869 75.902 75.944 76.000 76.072 76.163 76.275 76.412 76.576 76.768 76.992 77.250 77.542 77.871 78.239 78.645 79.092 79.579 80.107 80.677 81.289 81.941 82.634 83.366 84.137 84.946 85.790 86.669 87.580 88.522 89.491 90.486 91.505 92.543 93.599 94.670 95.752 96.843 97.939 99.038 100.135 101.228 102.314 103.389 104.451 105.496 106.522 107.526 108.505 109.457 110.379 111.270 112.127 112.949 113.734 114.480 115.188 115.855
52.263 53.361 54.456 55.544 56.623 57.690 58.741 59.773 60.784 61.772 62.732 63.664 64.566 65.434 66.267 67.064 67.823 68.542 69.222 69.862 70.460 71.016 71.532 72.006 72.440 72.833 73.188 73.506 73.787 74.033 74.247 74.430 74.585 74.714 74.819 74.904 74.970 75.021 75.061 75.091 75.116 75.138 75.160 75.186 75.219 75.262 75.318 75.389 75.480 75.593 75.729 75.893 76.086 76.310 76.567 76.860 77.189 77.556 77.962 78.409 78.896 79.425 79.995 80.606 81.258 81.951 82.683 83.454 84.263 85.107 85.986 86.897 87.839 88.809 89.804 90.822 91.861 92.917 93.987 95.070 96.160 97.257 98.355 99.452 100.545 101.631 102.706 103.768 104.813 105.839 106.843 107.822 108.774 109.697 110.587 111.445 112.266 113.051 113.798 114.505 115.172
51.596 52.694 53.789 54.877 55.956 57.022 58.073 59.106 60.117 61.104 62.065 62.997 63.898 64.766 65.600 66.396 67.155 67.875 68.555 69.194 69.792 70.349 70.864 71.339 71.772 72.166 72.521 72.838 73.120 73.366 73.580 73.763 73.918 74.047 74.152 74.236 74.303 74.354 74.393 74.424 74.448 74.470 74.493 74.519 74.552 74.594 74.650 74.722 74.813 74.925 75.062 75.226 75.418 75.642 75.900 76.192 76.521 76.889 77.295 77.742 78.229 78.757 79.327 79.939 80.591 81.284 82.016 82.787 83.596 84.440 85.319 86.230 87.172 88.141 89.136 90.155 91.193 92.249 93.320 94.402 95.493 96.589 97.688 98.785 99.878 100.964 102.039 103.101 104.146 105.172 106.176 107.155 108.107 109.029 109.920 110.777 111.599 112.384 113.130 113.838 114.505
50.949 52.047 53.141 54.230 55.309 56.375 57.426 58.458 59.470 60.457 61.418 62.350 63.251 64.119 64.952 65.749 66.508 67.228 67.908 68.547 69.145 69.702 70.217 70.691 71.125 71.519 71.874 72.191 72.472 72.719 72.933 73.116 73.271 73.399 73.505 73.589 73.655 73.707 73.746 73.777 73.801 73.823 73.845 73.871 73.904 73.947 74.003 74.075 74.166 74.278 74.415 74.578 74.771 74.995 75.252 75.545 75.874 76.241 76.648 77.094 77.582 78.110 78.680 79.291 79.943 80.636 81.369 82.140 82.948 83.793 84.672 85.583 86.524 87.494 88.489 89.507 90.546 91.602 92.673 93.755 94.846 95.942 97.040 98.137 99.231 100.316 101.392 102.453 103.499 104.525 105.528 106.508 107.460 108.382 109.273 110.130 110.952 111.737 112.483 113.190 113.857
50.326 51.424 52.519 53.607 54.686 55.752 56.803 57.836 58.847 59.834 60.795 61.727 62.628 63.496 64.329 65.126 65.885 66.605 67.285 67.924 68.522 69.079 69.594 70.069 70.502 70.896 71.251 71.568 71.849 72.096 72.310 72.493 72.648 72.776 72.882 72.966 73.033 73.084 73.123 73.154 73.178 73.200 73.222 73.249 73.281 73.324 73.380 73.452 73.543 73.655 73.792 73.956 74.148 74.372 74.630 74.922 75.251 75.619 76.025 76.471 76.959 77.487 78.057 78.668 79.321 80.013 80.746 81.517 82.326 83.170 84.049 84.960 85.901 86.871 87.866 88.885 89.923 90.979 92.050 93.132 94.223 95.319 96.417 97.515 98.608 99.693 100.769 101.831 102.876 103.902 104.906 105.885 106.837 107.759 108.650 109.507 110.329 111.114 111.860 112.568 113.235
49.732 50.830 51.924 53.013 54.092 55.158 56.209 57.241 58.253 59.240 60.201 61.133 62.034 62.902 63.735 64.532 65.291 66.011 66.691 67.330 67.928 68.485 69.000 69.474 69.908 70.302 70.657 70.974 71.255 71.502 71.716 71.899 72.054 72.182 72.288 72.372 72.438 72.490 72.529 72.560 72.584 72.606 72.628 72.654 72.687 72.730 72.786 72.858 72.949 73.061 73.198 73.361 73.554 73.778 74.036 74.328 74.657 75.024 75.431 75.877 76.365 76.893 77.463 78.074 78.727 79.419 80.152 80.923 81.731 82.576 83.455 84.366 85.307 86.277 87.272 88.290 89.329 90.385 91.456 92.538 93.629 94.725 95.823 96.921 98.014 99.099 100.175 101.236 102.282 103.308 104.312 105.291 106.243 107.165 108.056 108.913 109.735 110.520 111.266 111.973 112.640
49.170 50.268 51.363 52.451 53.530 54.597 55.648 56.680 57.691 58.679 59.639 60.571 61.473 62.341 63.174 63.971 64.730 65.449 66.129 66.769 67.367 67.923 68.439 68.913 69.347 69.740 70.095 70.413 70.694 70.940 71.154 71.337 71.492 71.621 71.726 71.811 71.877 71.928 71.968 71.998 72.023 72.045 72.067 72.093 72.126 72.169 72.225 72.296 72.387 72.500 72.636 72.800 72.993 73.217 73.474 73.767 74.096 74.463 74.869 75.316 75.803 76.332 76.902 77.513 78.165 78.858 79.590 80.361 81.170 82.014 82.893 83.804 84.746 85.716 86.711 87.729 88.768 89.824 90.894 91.977 93.067 94.164 95.262 96.359 97.452 98.538 99.613 100.675 101.720 102.746 103.750 104.729 105.681 106.604 107.494 108.352 109.173 109.958 110.705 111.412 112.079
48.645 49.743 50.838 51.926 53.005 54.072 55.122 56.155 57.166 58.153 59.114 60.046 60.947 61.815 62.649 63.445 64.204 64.924 65.604 66.243 66.842 67.398 67.914 68.388 68.821 69.215 69.570 69.888 70.169 70.415 70.629 70.812 70.967 71.096 71.201 71.285 71.352 71.403 71.443 71.473 71.498 71.519 71.542 71.568 71.601 71.644 71.699 71.771 71.862 71.975 72.111 72.275 72.468 72.692 72.949 73.241 73.571 73.938 74.344 74.791 75.278 75.807 76.376 76.988 77.640 78.333 79.065 79.836 80.645 81.489 82.368 83.279 84.221 85.190 86.186 87.204 88.242 89.299 90.369 91.452 92.542 93.638 94.737 95.834 96.927 98.013 99.088 100.150 101.195 102.221 103.225 104.204 105.156 106.078 106.969 107.826 108.648 109.433 110.180 110.887 111.554
48.159 49.257 50.352 51.441 52.520 53.586 54.637 55.669 56.680 57.668 58.629 59.561 60.462 61.330 62.163 62.960 63.719 64.439 65.119 65.758 66.356 66.913 67.428 67.902 68.336 68.730 69.085 69.402 69.683 69.930 70.143 70.327 70.481 70.610 70.715 70.800 70.866 70.918 70.957 70.987 71.012 71.034 71.056 71.082 71.115 71.158 71.214 71.286 71.376 71.489 71.626 71.789 71.982 72.206 72.463 72.756 73.085 73.452 73.859 74.305 74.792 75.321 75.891 76.502 77.154 77.847 78.579 79.351 80.159 81.004 81.882 82.794 83.735 84.705 85.700 86.718 87.757 88.813 89.884 90.966 92.057 93.153 94.251 95.348 96.441 97.527 98.602 99.664 100.709 101.735 102.739 103.718 104.670 105.593 106.484 107.341 108.162 108.947 109.694 110.401 111.068
47.716 48.814 49.909 50.997 52.076 53.143 54.193 55.226 56.237 57.224 58.185 59.117 60.018 60.887 61.720 62.517 63.275 63.995 64.675 65.314 65.913 66.469 66.985 67.459 67.893 68.286 68.641 68.959 69.240 69.486 69.700 69.883 70.038 70.167 70.272 70.356 70.423 70.474 70.514 70.544 70.569 70.590 70.613 70.639 70.672 70.715 70.770 70.842 70.933 71.046 71.182 71.346 71.539 71.763 72.020 72.312 72.642 73.009 73.415 73.862 74.349 74.878 75.448 76.059 76.711 77.404 78.136 78.907 79.716 80.560 81.439 82.350 83.292 84.261 85.257 86.275 87.313 88.370 89.440 90.523 91.613 92.709 93.808 94.905 95.998 97.084 98.159 99.221 100.266 101.292 102.296 103.275 104.227 105.149 106.040 106.897 107.719 108.504 109.251 109.958 110.625
47.318 48.416 49.510 50.599 51.678 52.744 53.795 54.827 55.839 56.826 57.787 58.719 59.620 60.488 61.321 62.118 62.877 63.597 64.277 64.916 65.514 66.071 66.586 67.060 67.494 67.888 68.243 68.560 68.841 69.088 69.302 69.485 69.640 69.768 69.874 69.958 70.024 70.076 70.115 70.146 70.170 70.192 70.214 70.240 70.273 70.316 70.372 70.444 70.535 70.647 70.784 70.947 71.140 71.364 71.622 71.914 72.243 72.610 73.017 73.463 73.951 74.479 75.049 75.660 76.313 77.005 77.738 78.509 79.317 80.162 81.041 81.952 82.893 83.863 84.858 85.876 86.915 87.971 89.042 90.124 91.215 92.311 93.409 94.507 95.600 96.685 97.761 98.822 99.868 100.894 101.897 102.877 103.829 104.751 105.642 106.499 107.321 108.106 108.852 109.559 110.226
46.966 48.064 49.159 50.247 51.326 52.392 53.443 54.476 55.487 56.474 57.435 58.367 59.268 60.136 60.970 61.766 62.525 63.245 63.925 64.564 65.162 65.719 66.234 66.709 67.142 67.536 67.891 68.208 68.490 68.736 68.950 69.133 69.288 69.417 69.522 69.606 69.673 69.724 69.763 69.794 69.818 69.840 69.863 69.889 69.922 69.964 70.020 70.092 70.183 70.295 70.432 70.596 70.788 71.012 71.270 71.562 71.891 72.259 72.665 73.112 73.599 74.127 74.697 75.309 75.961 76.654 77.386 78.157 78.966 79.810 80.689 81.600 82.542 83.511 84.506 85.525 86.563 87.619 88.690 89.772 90.863 91.959 93.058 94.155 95.248 96.334 97.409 98.471 99.516 100.542 101.546 102.525 103.477 104.399 105.290 106.147 106.969 107.754 108.500 109.208 109.875
46.663 47.761 48.855 49.944 51.023 52.089 53.140 54.172 55.184 56.171 57.132 58.064 58.965 59.833 60.666 61.463 62.222 62.942 63.622 64.261 64.859 65.416 65.931 66.405 66.839 67.233 67.588 67.905 68.186 68.433 68.647 68.830 68.984 69.113 69.218 69.303 69.369 69.421 69.460 69.490 69.515 69.537 69.559 69.585 69.618 69.661 69.717 69.789 69.880 69.992 70.129 70.292 70.485 70.709 70.966 71.259 71.588 71.955 72.362 72.808 73.296 73.824 74.394 75.005 75.657 76.350 77.083 77.854 78.662 79.507 80.386 81.297 82.238 83.208 84.203 85.221 86.260 87.316 88.387 89.469 90.560 91.656 92.754 93.851 94.944 96.030 97.105 98.167 99.213 100.238 101.242 102.222 103.173 104.096 104.987 105.844 106.666 107.450 108.197 108.904 109.571
46.409 47.506 48.601 49.690 50.769 51.835 52.886 53.918 54.929 55.917 56.878 57.810 58.711 59.579 60.412 61.209 61.968 62.688 63.368 64.007 64.605 65.162 65.677 66.151 66.585 66.979 67.334 67.651 67.932 68.179 68.392 68.576 68.730 68.859 68.964 69.049 69.115 69.167 69.206 69.236 69.261 69.283 69.305 69.331 69.364 69.407 69.463 69.535 69.625 69.738 69.875 70.038 70.231 70.455 70.712 71.005 71.334 71.701 72.108 72.554 73.041 73.570 74.140 74.751 75.403 76.096 76.828 77.600 78.408 79.253 80.131 81.043 81.984 82.954 83.949 84.967 86.006 87.062 88.133 89.215 90.306 91.402 92.500 93.597 94.690 95.776 96.851 97.913 98.958 99.984 100.988 101.967 102.919 103.842 104.733 105.590 106.412 107.196 107.943 108.650 109.317
46.204 47.302 48.397 49.485 50.564 51.631 52.682 53.714 54.725 55.713 56.673 57.605 58.507 59.375 60.208 61.005 61.764 62.483 63.163 63.803 64.401 64.957 65.473 65.947 66.381 66.774 67.129 67.447 67.728 67.974 68.188 68.371 68.526 68.655 68.760 68.845 68.911 68.962 69.002 69.032 69.057 69.079 69.101 69.127 69.160 69.203 69.259 69.330 69.421 69.534 69.670 69.834 70.027 70.251 70.508 70.801 71.130 71.497 71.903 72.350 72.837 73.366 73.936 74.547 75.199 75.892 76.624 77.395 78.204 79.048 79.927 80.838 81.780 82.749 83.745 84.763 85.802 86.858 87.928 89.011 90.101 91.198 92.296 93.393 94.486 95.572 96.647 97.709 98.754 99.780 100.784 101.763 102.715 103.638 104.528 105.386 106.207 106.992 107.739 108.446 109.113
46.050 47.148 48.243 49.331 50.410 51.476 52.527 53.560 54.571 55.558 56.519 57.451 58.352 59.220 60.054 60.850 61.609 62.329 63.009 63.648 64.246 64.803 65.318 65.793 66.226 66.620 66.975 67.292 67.574 67.820 68.034 68.217 68.372 68.501 68.606 68.690 68.757 68.808 68.848 68.878 68.902 68.924 68.947 68.973 69.006 69.048 69.104 69.176 69.267 69.379 69.516 69.680 69.872 70.096 70.354 70.646 70.975 71.343 71.749 72.196 72.683 73.211 73.781 74.393 75.045 75.738 76.470 77.241 78.050 78.894 79.773 80.684 81.626 82.595 83.590 84.609 85.647 86.703 87.774 88.856 89.947 91.043 92.142 93.239 94.332 95.418 96.493 97.555 98.600 99.626 100.630 101.609 102.561 103.483 104.374 105.231 106.053 106.838 107.584 108.292 108.959
45.945 47.043 48.138 49.226 50.305 51.372 52.422 53.455 54.466 55.453 56.414 57.346 58.247 59.116 59.949 60.746 61.504 62.224 62.904 63.543 64.142 64.698 65.214 65.688 66.122 66.515 66.870 67.188 67.469 67.715 67.929 68.112 68.267 68.396 68.501 68.585 68.652 68.703 68.743 68.773 68.798 68.819 68.842 68.868 68.901 68.944 68.999 69.071 69.162 69.275 69.411 69.575 69.768 69.992 70.249 70.541 70.871 71.238 71.644 72.091 72.578 73.107 73.677 74.288 74.940 75.633 76.365 77.136 77.945 78.789 79.668 80.579 81.521 82.490 83.486 84.504 85.542 86.599 87.669 88.752 89.842 90.938 92.037 93.134 94.227 95.313 96.388 97.450 98.495 99.521 100.525 101.504 102.456 103.378 104.269 105.126 105.948 106.733 107.480 108.187 108.854
45.889 46.987 48.082 49.170 50.249 51.315 52.366 53.399 54.410 55.397 56.358 57.290 58.191 59.059 59.892 60.689 61.448 62.168 62.848 63.487 64.085 64.642 65.157 65.632 66.065 66.459 66.814 67.131 67.412 67.659 67.873 68.056 68.211 68.339 68.445 68.529 68.596 68.647 68.686 68.717 68.741 68.763 68.785 68.812 68.844 68.887 68.943 69.015 69.106 69.218 69.355 69.519 69.711 69.935 70.193 70.485 70.814 71.182 71.588 72.034 72.522 73.050 73.620 74.231 74.884 75.576 76.309 77.080 77.889 78.733 79.612 80.523 81.465 82.434 83.429 84.448 85.486 86.542 87.613 88.695 89.786 90.882 91.980 93.078 94.171 95.256 96.332 97.394 98.439 99.465 100.469 101.448 102.400 103.322 104.213 105.070 105.892 106.677 107.423 108.131 108.798
45.880 46.978 48.072 49.161 50.240 51.306 52.357 53.389 54.401 55.388 56.349 57.281 58.182 59.050 59.883 60.680 61.439 62.159 62.839 63.478 64.076 64.633 65.148 65.622 66.056 66.450 66.805 67.122 67.403 67.650 67.864 68.047 68.201 68.330 68.435 68.520 68.586 68.638 68.677 68.707 68.732 68.754 68.776 68.802 68.835 68.878 68.934 69.006 69.097 69.209 69.346 69.509 69.702 69.926 70.183 70.476 70.805 71.172 71.579 72.025 72.513 73.041 73.611 74.222 74.874 75.567 76.300 77.071 77.879 78.724 79.603 80.514 81.455 82.425 83.420 84.438 85.477 86.533 87.604 88.686 89.777 90.873 91.971 93.068 94.162 95.247 96.322 97.384 98.430 99.456 100.459 101.439 102.390 103.313 104.204 105.061 105.883 106.667 107.414 108.121 108.788
45.916 47.013 48.108 49.197 50.276 51.342 52.393 53.425 54.436 55.424 56.385 57.317 58.218 59.086 59.919 60.716 61.475 62.195 62.875 63.514 64.112 64.669 65.184 65.658 66.092 66.486 66.841 67.158 67.439 67.686 67.899 68.083 68.237 68.366 68.471 68.556 68.622 68.674 68.713 68.743 68.768 68.790 68.812 68.838 68.871 68.914 68.970 69.042 69.132 69.245 69.382 69.545 69.738 69.962 70.219 70.512 70.841 71.208 71.615 72.061 72.548 73.077 73.647 74.258 74.910 75.603 76.336 77.107 77.915 78.760 79.638 80.550 81.491 82.461 83.456 84.474 85.513 86.569 87.640 88.722 89.813 90.909 92.007 93.104 94.197 95.283 96.358 97.420 98.465 99.491 100.495 101.474 102.426 103.349 104.240 105.097 105.919 106.703 107.450 108.157 108.824
45.994 47.092 48.187 49.275 50.354 51.421 52.472 53.504 54.515 55.502 56.463 57.395 58.297 59.165 59.998 60.795 61.554 62.273 62.953 63.593 64.191 64.747 65.263 65.737 66.171 66.564 66.919 67.237 67.518 67.764 67.978 68.161 68.316 68.445 68.550 68.635 68.701 68.752 68.792 68.822 68.847 68.869 68.891 68.917 68.950 68.993 69.049 69.120 69.211 69.324 69.460 69.624 69.817 70.041 70.298 70.591 70.920 71.287 71.693 72.140 72.627 73.156 73.726 74.337 74.989 75.682 76.414 77.185 77.994 78.838 79.717 80.628 81.570 82.539 83.535 84.553 85.592 86.648 87.718 88.801 89.891 90.988 92.086 93.183 94.276 95.362 96.437 97.499 98.544 99.570 100.574 101.553 102.505 103.428 104.318 105.175 105.997 106.782 107.529 108.236 108.903
46.113 47.211 48.306 49.394 50.473 51.539 52.590 53.623 54.634 55.621 56.582 57.514 58.415 59.283 60.117 60.913 61.672 62.392 63.072 63.711 64.309 64.866 65.381 65.856 66.289 66.683 67.038 67.355 67.637 67.883 68.097 68.280 68.435 68.564 68.669 68.753 68.820 68.871 68.910 68.941 68.965 68.987 69.010 69.036 69.069 69.111 69.167 69.239 69.330 69.442 69.579 69.743 69.935 70.159 70.417 70.709 71.038 71.406 71.812 72.259 72.746 73.274 73.844 74.456 75.108 75.801 76.533 77.304 78.113 78.957 79.836 80.747 81.689 82.658 83.653 84.672 85.710 86.766 87.837 88.919 90.010 91.106 92.205 93.302 94.395 95.481 96.556 97.618 98.663 99.689 100.693 101.672 102.624 103.546 104.437 105.294 106.116 106.901 107.647 108.355 109.022
46.269 47.367 48.461 49.550 50.629 51.695 52.746 53.778 54.790 55.777 56.738 57.670 58.571 59.439 60.272 61.069 61.828 62.548 63.228 63.867 64.465 65.022 65.537 66.011 66.445 66.839 67.194 67.511 67.792 68.039 68.253 68.436 68.590 68.719 68.824 68.909 68.975 69.027 69.066 69.096 69.121 69.143 69.165 69.191 69.224 69.267 69.323 69.395 69.486 69.598 69.735 69.898 70.091 70.315 70.572 70.865 71.194 71.561 71.968 72.414 72.902 73.430 74.000 74.611 75.263 75.956 76.689 77.460 78.268 79.113 79.992 80.903 81.844 82.814 83.809 84.827 85.866 86.922 87.993 89.075 90.166 91.262 92.360 93.457 94.550 95.636 96.711 97.773 98.819 99.845 100.848 101.828 102.779 103.702 104.593 105.450 106.272 107.056 107.803 108.510 109.177
46.457 47.555 48.650 49.739 50.818 51.884 52.935 53.967 54.978 55.966 56.927 57.859 58.760 59.628 60.461 61.258 62.017 62.737 63.417 64.056 64.654 65.211 65.726 66.200 66.634 67.028 67.383 67.700 67.981 68.228 68.441 68.625 68.779 68.908 69.013 69.098 69.164 69.216 69.255 69.285 69.310 69.332 69.354 69.380 69.413 69.456 69.512 69.584 69.674 69.787 69.924 70.087 70.280 70.504 70.761 71.054 71.383 71.750 72.157 72.603 73.090 73.619 74.189 74.800 75.452 76.145 76.877 77.649 78.457 79.302 80.180 81.092 82.033 83.003 83.998 85.016 86.055 87.111 88.182 89.264 90.355 91.451 92.549 93.646 94.739 95.825 96.900 97.962 99.007 100.033 101.037 102.016 102.968 103.891 104.782 105.639 106.460 107.245 107.992 108.699 109.366
46.676 47.774 48.868 49.957 51.036 52.102 53.153 54.185 55.197 56.184 57.145 58.077 58.978 59.846 60.679 61.476 62.235 62.955 63.635 64.274 64.872 65.429 65.944 66.418 66.852 67.246 67.601 67.918 68.199 68.446 68.660 68.843 68.998 69.126 69.232 69.316 69.382 69.434 69.473 69.504 69.528 69.550 69.572 69.598 69.631 69.674 69.730 69.802 69.893 70.005 70.142 70.305 70.498 70.722 70.980 71.272 71.601 71.968 72.375 72.821 73.309 73.837 74.407 75.018 75.671 76.363 77.096 77.867 78.675 79.520 80.399 81.310 82.251 83.221 84.216 85.234 86.273 87.329 88.400 89.482 90.573 91.669 92.767 93.865 94.958 96.043 97.119 98.180 99.226 100.252 101.256 102.235 103.187 104.109 105.000 105.857 106.679 107.464 108.210 108.917 109.584
46.919 48.017 49.112 50.200 51.279 52.346 53.397 54.429 55.440 56.427 57.388 58.320 59.221 60.090 60.923 61.720 62.478 63.198 63.878 64.518 65.116 65.672 66.188 66.662 67.096 67.489 67.844 68.162 68.443 68.689 68.903 69.086 69.241 69.370 69.475 69.560 69.626 69.677 69.717 69.747 69.772 69.793 69.816 69.842 69.875 69.918 69.974 70.045 70.136 70.249 70.385 70.549 70.742 70.966 71.223 71.516 71.845 72.212 72.618 73.065 73.552 74.081 74.651 75.262 75.914 76.607 77.339 78.110 78.919 79.763 80.642 81.553 82.495 83.464 84.460 85.478 86.517 87.573 88.643 89.726 90.816 91.913 93.011 94.108 95.201 96.287 97.362 98.424 99.469 100.495 101.499 102.478 103.430 104.353 105.243 106.100 106.922 107.707 108.454 109.161 109.828
47.184 48.281 49.376 50.465 51.544 52.610 53.661 54.693 55.704 56.692 57.653 58.585 59.486 60.354 61.187 61.984 62.743 63.463 64.143 64.782 65.380 65.937 66.452 66.926 67.360 67.754 68.109 68.426 68.707 68.954 69.167 69.351 69.505 69.634 69.739 69.824 69.890 69.942 69.981 70.011 70.036 70.058 70.080 70.106 70.139 70.182 70.238 70.310 70.400 70.513 70.650 70.813 71.006 71.230 71.487 71.780 72.109 72.476 72.883 73.329 73.816 74.345 74.915 75.526 76.178 76.871 77.604 78.375 79.183 80.028 80.906 81.818 82.759 83.729 84.724 85.742 86.781 87.837 88.908 89.990 91.081 92.177 93.275 94.372 95.465 96.551 97.626 98.688 99.733 100.759 101.763 102.742 103.694 104.617 105.508 106.365 107.187 107.971 108.718 109.425 110.092
47.464 48.562 49.657 50.745 51.824 52.890 53.941 54.974 55.985 56.972 57.933 58.865 59.766 60.634 61.468 62.264 63.023 63.743 64.423 65.062 65.660 66.217 66.732 67.207 67.640 68.034 68.389 68.706 68.988 69.234 69.448 69.631 69.786 69.915 70.020 70.104 70.171 70.222 70.261 70.292 70.316 70.338 70.361 70.387 70.420 70.462 70.518 70.590 70.681 70.793 70.930 71.094 71.286 71.510 71.768 72.060 72.389 72.757 73.163 73.610 74.097 74.625 75.195 75.807 76.459 77.152 77.884 78.655 79.464 80.308 81.187 82.098 83.040 84.009 85.004 86.023 87.061 88.117 89.188 90.270 91.361 92.457 93.556 94.653 95.746 96.832 97.907 98.969 100.014 101.040 102.044 103.023 103.975 104.897 105.788 106.645 107.467 108.252 108.998 109.706 110.373
47.756 48.854 49.948 51.037 52.116 53.182 54.233 55.265 56.277 57.264 58.225 59.157 60.058 60.926 61.759 62.556 63.315 64.035 64.715 65.354 65.952 66.509 67.024 67.498 67.932 68.326 68.681 68.998 69.279 69.526 69.740 69.923 70.078 70.206 70.312 70.396 70.462 70.514 70.553 70.584 70.608 70.630 70.652 70.678 70.711 70.754 70.810 70.882 70.973 71.085 71.222 71.385 71.578 71.802 72.060 72.352 72.681 73.048 73.455 73.901 74.389 74.917 75.487 76.098 76.751 77.443 78.176 78.947 79.755 80.600 81.479 82.390 83.331 84.301 85.296 86.314 87.353 88.409 89.480 90.562 91.653 92.749 93.847 94.945 96.038 97.123 98.199 99.260 100.306 101.332 102.336 103.315 104.267 105.189 106.080 106.937 107.759 108.544 109.290 109.997 110.664
48.054 49.152 50.247 51.335 52.414 53.480 54.531 55.564 56.575 57.562 58.523 59.455 60.356 61.224 62.058 62.854 63.613 64.333 65.013 65.652 66.250 66.807 67.322 67.797 68.230 68.624 68.979 69.296 69.578 69.824 70.038 70.221 70.376 70.505 70.610 70.694 70.761 70.812 70.851 70.882 70.906 70.928 70.951 70.977 71.010 71.052 71.108 71.180 71.271 71.383 71.520 71.684 71.876 72.100 72.358 72.650 72.979 73.347 73.753 74.200 74.687 75.215 75.785 76.397 77.049 77.742 78.474 79.245 80.054 80.898 81.777 82.688 83.630 84.599 85.594 86.613 87.651 88.707 89.778 90.860 91.951 93.047 94.146 95.243 96.336 97.422 98.497 99.559 100.604 101.630 102.634 103.613 104.565 105.487 106.378 107.235 108.057 108.842 109.588 110.296 110.963
48.354 49.452 50.546 51.635 52.714 53.780 54.831 55.863 56.875 57.862 58.823 59.755 60.656 61.524 62.357 63.154 63.913 64.633 65.313 65.952 66.550 67.107 67.622 68.096 68.530 68.924 69.279 69.596 69.877 70.124 70.338 70.521 70.676 70.804 70.909 70.994 71.060 71.112 71.151 71.182 71.206 71.228 71.250 71.276 71.309 71.352 71.408 71.480 71.571 71.683 71.820 71.983 72.176 72.400 72.657 72.950 73.279 73.646 74.053 74.499 74.987 75.515 76.085 76.696 77.348 78.041 78.774 79.545 80.353 81.198 82.077 82.988 83.929 84.899 85.894 86.912 87.951 89.007 90.078 91.160 92.251 93.347 94.445 95.542 96.636 97.721 98.797 99.858 100.904 101.930 102.933 103.913 104.865 105.787 106.678 107.535 108.357 109.142 109.888 110.595 111.262
48.650 49.748 50.843 51.931 53.010 54.076 55.127 56.160 57.171 58.158 59.119 60.051 60.952 61.820 62.653 63.450 64.209 64.929 65.609 66.248 66.846 67.403 67.918 68.392 68.826 69.220 69.575 69.892 70.173 70.420 70.634 70.817 70.972 71.100 71.206 71.290 71.357 71.408 71.447 71.478 71.502 71.524 71.546 71.572 71.605 71.648 71.704 71.776 71.867 71.979 72.116 72.279 72.472 72.696 72.954 73.246 73.575 73.943 74.349 74.795 75.283 75.811 76.381 76.992 77.645 78.337 79.070 79.841 80.649 81.494 82.373 83.284 84.225 85.195 86.190 87.208 88.247 89.303 90.374 91.456 92.547 93.643 94.741 95.839 96.932 98.017 99.093 100.154 101.200 102.226 103.230 104.209 105.161 106.083 106.974 107.831 108.653 109.438 110.184 110.892 111.559
48.937 50.035 51.130 52.219 53.298 54.364 55.415 56.447 57.458 58.446 59.407 60.339 61.240 62.108 62.941 63.738 64.497 65.217 65.897 66.536 67.134 67.691 68.206 68.680 69.114 69.508 69.863 70.180 70.461 70.708 70.921 71.105 71.259 71.388 71.493 71.578 71.644 71.696 71.735 71.765 71.790 71.812 71.834 71.860 71.893 71.936 71.992 72.064 72.154 72.267 72.404 72.567 72.760 72.984 73.241 73.534 73.863 74.230 74.637 75.083 75.570 76.099 76.669 77.280 77.932 78.625 79.357 80.129 80.937 81.782 82.660 83.572 84.513 85.483 86.478 87.496 88.535 89.591 90.662 91.744 92.835 93.931 95.029 96.126 97.219 98.305 99.380 100.442 101.487 102.513 103.517 104.496 105.448 106.371 107.262 108.119 108.940 109.725 110.472 111.179 111.846
49.212 50.310 51.404 52.493 53.572 54.638 55.689 56.721 57.733 58.720 59.681 60.613 61.514 62.382 63.215 64.012 64.771 65.491 66.171 66.810 67.408 67.965 68.480 68.954 69.388 69.782 70.137 70.454 70.735 70.982 71.196 71.379 71.534 71.662 71.768 71.852 71.919 71.970 72.009 72.040 72.064 72.086 72.108 72.134 72.167 72.210 72.266 72.338 72.429 72.541 72.678 72.841 73.034 73.258 73.516 73.808 74.137 74.504 74.911 75.357 75.845 76.373 76.943 77.554 78.207 78.899 79.632 80.403 81.211 82.056 82.935 83.846 84.787 85.757 86.752 87.770 88.809 89.865 90.936 92.018 93.109 94.205 95.303 96.401 97.494 98.579 99.655 100.716 101.762 102.788 103.792 104.771 105.723 106.645 107.536 108.393 109.215 110.000 110.746 111.453 112.121
49.468 50.566 51.661 52.749 53.828 54.894 55.945 56.978 57.989 58.976 59.937 60.869 61.770 62.638 63.472 64.268 65.027 65.747 66.427 67.066 67.664 68.221 68.736 69.211 69.644 70.038 70.393 70.710 70.991 71.238 71.452 71.635 71.790 71.919 72.024 72.108 72.175 72.226 72.265 72.296 72.320 72.342 72.365 72.391 72.424 72.466 72.522 72.594 72.685 72.797 72.934 73.098 73.290 73.514 73.772 74.064 74.393 74.761 75.167 75.614 76.101 76.629 77.199 77.811 78.463 79.156 79.888 80.659 81.468 82.312 83.191 84.102 85.044 86.013 87.008 88.027 89.065 90.121 91.192 92.274 93.365 94.461 95.560 96.657 97.750 98.836 99.911 100.973 102.018 103.044 104.048 105.027 105.979 106.901 107.792 108.649 109.471 110.256 111.002 111.710 112.377
49.702 50.799 51.894 52.983 54.062 55.128 56.179 57.211 58.222 59.210 60.171 61.103 62.004 62.872 63.705 64.502 65.261 65.981 66.661 67.300 67.898 68.455 68.970 69.444 69.878 70.272 70.627 70.944 71.225 71.472 71.685 71.869 72.023 72.152 72.257 72.342 72.408 72.460 72.499 72.529 72.554 72.576 72.598 72.624 72.657 72.700 72.756 72.828 72.918 73.031 73.168 73.331 73.524 73.748 74.005 74.298 74.627 74.994 75.401 75.847 76.334 76.863 77.433 78.044 78.696 79.389 80.121 80.893 81.701 82.546 83.424 84.336 85.277 86.247 87.242 88.260 89.299 90.355 91.426 92.508 93.599 94.695 95.793 96.890 97.983 99.069 100.144 101.206 102.251 103.277 104.281 105.260 106.212 107.135 108.026 108.883 109.704 110.489 111.236 111.943 112.610
49.908 51.006 52.101 53.189 54.268 55.334 56.385 57.418 58.429 59.416 60.377 61.309 62.210 63.078 63.912 64.708 65.467 66.187 66.867 67.506 68.104 68.661 69.176 69.651 70.084 70.478 70.833 71.150 71.432 71.678 71.892 72.075 72.230 72.359 72.464 72.548 72.615 72.666 72.706 72.736 72.760 72.782 72.805 72.831 72.864 72.906 72.962 73.034 73.125 73.237 73.374 73.538 73.730 73.954 74.212 74.504 74.833 75.201 75.607 76.054 76.541 77.069 77.639 78.251 78.903 79.596 80.328 81.099 81.908 82.752 83.631 84.542 85.484 86.453 87.448 88.467 89.505 90.561 91.632 92.714 93.805 94.901 96.000 97.097 98.190 99.276 100.351 101.413 102.458 103.484 104.488 105.467 106.419 107.341 108.232 109.089 109.911 110.696 111.442 112.150 112.817
50.084 51.181 52.276 53.365 54.444 55.510 56.561 57.593 58.604 59.592 60.553 61.485 62.386 63.254 64.087 64.884 65.643 66.363 67.043 67.682 68.280 68.837 69.352 69.826 70.260 70.654 71.009 71.326 71.607 71.854 72.067 72.251 72.405 72.534 72.639 72.724 72.790 72.842 72.881 72.911 72.936 72.958 72.980 73.006 73.039 73.082 73.138 73.210 73.300 73.413 73.550 73.713 73.906 74.130 74.387 74.680 75.009 75.376 75.783 76.229 76.716 77.245 77.815 78.426 79.078 79.771 80.504 81.275 82.083 82.928 83.806 84.718 85.659 86.629 87.624 88.642 89.681 90.737 91.808 92.890 93.981 95.077 96.175 97.272 98.365 99.451 100.526 101.588 102.633 103.659 104.663 105.642 106.594 107.517 108.408 109.265 110.087 110.871 111.618 112.325 112.992
50.224 51.322 52.417 53.505 54.584 55.651 56.701 57.734 58.745 59.732 60.693 61.625 62.526 63.395 64.228 65.025 65.783 66.503 67.183 67.822 68.421 68.977 69.493 69.967 70.401 70.794 71.149 71.467 71.748 71.994 72.208 72.391 72.546 72.675 72.780 72.864 72.931 72.982 73.022 73.052 73.077 73.098 73.121 73.147 73.180 73.223 73.278 73.350 73.441 73.554 73.690 73.854 74.047 74.271 74.528 74.820 75.150 75.517 75.923 76.370 76.857 77.386 77.956 78.567 79.219 79.912 80.644 81.415 82.224 83.068 83.947 84.858 85.800 86.769 87.765 88.783 89.821 90.878 91.948 93.031 94.121 95.217 96.316 97.413 98.506 99.592 100.667 101.729 102.774 103.800 104.804 105.783 106.735 107.657 108.548 109.405 110.227 111.012 111.759 112.466 113.133
50.327 51.425 52.519 53.608 54.687 55.753 56.804 57.836 58.848 59.835 60.796 61.728 62.629 63.497 64.330 65.127 65.886 66.606 67.286 67.925 68.523 69.080 69.595 70.069 70.503 70.897 71.252 71.569 71.850 72.097 72.311 72.494 72.649 72.777 72.882 72.967 73.033 73.085 73.124 73.155 73.179 73.201 73.223 73.249 73.282 73.325 73.381 73.453 73.544 73.656 73.793 73.956 74.149 74.373 74.630 74.923 75.252 75.619 76.026 76.472 76.960 77.488 78.058 78.669 79.321 80.014 80.747 81.518 82.326 83.171 84.050 84.961 85.902 86.872 87.867 88.885 89.924 90.980 92.051 93.133 94.224 95.320 96.418 97.515 98.609 99.694 100.770 101.831 102.877 103.903 104.906 105.886 106.838 107.760 108.651 109.508 110.330 111.115 111.861 112.568 113.235
50.388 51.486 52.581 53.669 54.748 55.814 56.865 57.898 58.909 59.896 60.857 61.789 62.690 63.558 64.391 65.188 65.947 66.667 67.347 67.986 68.584 69.141 69.656 70.131 70.564 70.958 71.313 71.630 71.911 72.158 72.372 72.555 72.710 72.838 72.944 73.028 73.095 73.146 73.185 73.216 73.240 73.262 73.285 73.311 73.343 73.386 73.442 73.514 73.605 73.717 73.854 74.018 74.210 74.434 74.692 74.984 75.313 75.681 76.087 76.534 77.021 77.549 78.119 78.730 79.383 80.075 80.808 81.579 82.388 83.232 84.111 85.022 85.964 86.933 87.928 88.947 89.985 91.041 92.112 93.194 94.285 95.381 96.479 97.577 98.670 99.756 100.831 101.893 102.938 103.964 104.968 105.947 106.899 107.821 108.712 109.569 110.391 111.176 111.922 112.630 113.297
50.405 51.503 52.598 53.686 54.765 55.832 56.883 57.915 58.926 59.914 60.874 61.806 62.708 63.576 64.409 65.206 65.965 66.684 67.364 68.004 68.602 69.158 69.674 70.148 70.582 70.975 71.330 71.648 71.929 72.175 72.389 72.572 72.727 72.856 72.961 73.046 73.112 73.163 73.203 73.233 73.258 73.280 73.302 73.328 73.361 73.404 73.460 73.531 73.622 73.735 73.871 74.035 74.228 74.452 74.709 75.002 75.331 75.698 76.104 76.551 77.038 77.567 78.137 78.748 79.400 80.093 80.825 81.596 82.405 83.249 84.128 85.039 85.981 86.950 87.946 88.964 90.003 91.059 92.129 93.212 94.302 95.399 96.497 97.594 98.687 99.773 100.848 101.910 102.955 103.981 104.985 105.964 106.916 107.839 108.729 109.587 110.408 111.193 111.940 112.647 113.314
50.377 51.475 52.569 53.658 54.737 55.803 56.854 57.886 58.898 59.885 60.846 61.778 62.679 63.547 64.380 65.177 65.936 66.656 67.336 67.975 68.573 69.130 69.645 70.119 70.553 70.947 71.302 71.619 71.900 72.147 72.361 72.544 72.699 72.827 72.932 73.017 73.083 73.135 73.174 73.205 73.229 73.251 73.273 73.299 73.332 73.375 73.431 73.503 73.594 73.706 73.843 74.006 74.199 74.423 74.680 74.973 75.302 75.669 76.076 76.522 77.010 77.538 78.108 78.719 79.371 80.064 80.797 81.568 82.376 83.221 84.100 85.011 85.952 86.922 87.917 88.935 89.974 91.030 92.101 93.183 94.274 95.370 96.468 97.565 98.659 99.744 100.820 101.881 102.927 103.953 104.956 105.936 106.888 107.810 108.701 109.558 110.380 111.165 111.911 112.618 113.285
50.300 51.398 52.493 53.581 54.660 55.727 56.778 57.810 58.821 59.809 60.769 61.701 62.603 63.471 64.304 65.101 65.860 66.579 67.259 67.899 68.497 69.053 69.569 70.043 70.477 70.870 71.225 71.543 71.824 72.070 72.284 72.467 72.622 72.751 72.856 72.941 73.007 73.058 73.098 73.128 73.153 73.175 73.197 73.223 73.256 73.299 73.355 73.426 73.517 73.630 73.766 73.930 74.123 74.347 74.604 74.897 75.226 75.593 75.999 76.446 76.933 77.462 78.032 78.643 79.295 79.988 80.720 81.491 82.300 83.144 84.023 84.934 85.876 86.846 87.841 88.859 89.898 90.954 92.024 93.107 94.197 95.294 96.392 97.489 98.582 99.668 100.743 101.805 102.850 103.876 104.880 105.859 106.811 107.734 108.624 109.482 110.303 111.088 111.835 112.542 113.209
50.175 51.273 52.368 53.456 54.535 55.601 56.652 57.685 58.696 59.683 60.644 61.576 62.477 63.345 64.179 64.975 65.734 66.454 67.134 67.773 68.371 68.928 69.443 69.918 70.351 70.745 71.100 71.417 71.699 71.945 72.159 72.342 72.497 72.626 72.731 72.815 72.882 72.933 72.972 73.003 73.027 73.049 73.072 73.098 73.131 73.173 73.229 73.301 73.392 73.504 73.641 73.805 73.997 74.221 74.479 74.771 75.100 75.468 75.874 76.321 76.808 77.336 77.906 78.518 79.170 79.863 80.595 81.366 82.175 83.019 83.898 84.809 85.751 86.720 87.715 88.734 89.772 90.828 91.899 92.981 94.072 95.168 96.267 97.364 98.457 99.543 100.618 101.680 102.725 103.751 104.755 105.734 106.686 107.608 108.499 109.356 110.178 110.963 111.709 112.417 113.084
50.000 51.098 52.193 53.281 54.360 55.426 56.477 57.510 58.521 59.508 60.469 61.401 62.302 63.170 64.004 64.800 65.559 66.279 66.959 67.598 68.196 68.753 69.268 69.743 70.176 70.570 70.925 71.242 71.524 71.770 71.984 72.167 72.322 72.451 72.556 72.640 72.707 72.758 72.797 72.828 72.852 72.874 72.897 72.923 72.956 72.998 73.054 73.126 73.217 73.329 73.466 73.630 73.822 74.046 74.304 74.596 74.925 75.293 75.699 76.146 76.633 77.161 77.731 78.343 78.995 79.688 80.420 81.191 82.000 82.844 83.723 84.634 85.576 86.545 87.540 88.559 89.597 90.653 91.724 92.806 93.897 94.993 96.092 97.189 98.282 99.368 100.443 101.505 102.550 103.576 104.580 105.559 106.511 107.433 108.324 109.181 110.003 110.788 111.534 112.242 112.909
